X:1955
L:1/16
Q:1/4=110
M:2/4
K:F
 F2 | (ABcA) F2A2 | c2 f4 a2 | f2c2 (ABcA) | G6 F2 | A2F2 (ABcA) | (fga2) (fga2) | f2c2 (ABcA) | 
 F6 |:

